icons/lines/favorite-chart.svg

<svg xmlns="http://www.w3.org/2000/svg" width="24" height="24" viewBox="0 0 24 24" fill="none" stroke="currentColor" stroke-width="2" stroke-linecap="round" stroke-linejoin="round" >
  <path d="M22 13V9C22 4 20 2 15 2H9C4 2 2 4 2 9V15C2 20 4 22 9 22H13"/>
  <path d="M7.33008 14.49L9.71008 11.4C10.0501 10.96 10.6801 10.88 11.1201 11.22L12.9501 12.66C13.3901 13 14.0201 12.92 14.3601 12.49L16.6701 9.50999"/>
  <path d="M19.4802 15.82L19.7602 16.39C19.9002 16.67 20.2502 16.93 20.5602 16.99L20.9402 17.05C22.0802 17.24 22.3502 18.08 21.5302 18.91L21.1802 19.26C20.9502 19.5 20.8202 19.96 20.8902 20.28L20.9402 20.49C21.2502 21.87 20.5202 22.4 19.3202 21.68L19.0602 21.53C18.7502 21.35 18.2502 21.35 17.9402 21.53L17.6802 21.68C16.4702 22.41 15.7402 21.87 16.0602 20.49L16.1102 20.28C16.1802 19.96 16.0502 19.5 15.8202 19.26L15.4702 18.91C14.6502 18.08 14.9202 17.24 16.0602 17.05L16.4402 16.99C16.7402 16.94 17.1002 16.67 17.2402 16.39L17.5202 15.82C18.0602 14.73 18.9402 14.73 19.4802 15.82Z"/>
  </svg>

<svg xmlns="http://www.w3.org/2000/svg" width="24" height="24" viewBox="0 0 24 24" fill="none" stroke="currentColor" stroke-width="2" stroke-linecap="round" stroke-linejoin="round">
  <path d="M19.76 16.39a1.25 1.25 0 0 0 .8.6l.38.06c1.14.19 1.41 1.03.59 1.86l-.35.35c-.23.24-.36.7-.29 1.02l.05.21c.31 1.38-.42 1.91-1.62 1.19l-.26-.15c-.31-.18-.81-.18-1.12 0l-.26.15c-1.21.73-1.94.19-1.62-1.19l.05-.21c.07-.32-.06-.78-.29-1.02l-.35-.35c-.82-.83-.55-1.67.59-1.86l.38-.06c.3-.05.66-.32.8-.6l.28-.57c.54-1.09 1.42-1.09 1.96 0z" />
  <path d="M22 13V9c0-5-2-7-7-7H9C4 2 2 4 2 9v6c0 5 2 7 7 7h4" />
  <path d="m7.33 14.49 2.38-3.09a1 1 0 0 1 1.41-.18l1.83 1.44a1 1 0 0 0 1.41-.17l2.31-2.98" />
</svg>
